src/actions/symbolic/quotation-symbolic.svg

<svg width="16px" height="16px" version="1.1" viewBox="0 0 16 16" xmlns="http://www.w3.org/2000/svg">
 <path d="m2 3-1 3v2h2v-2h-1l1-3h-1zm4 0-1 3v2h2v-2h-1l1-3h-1z" fill="#363636" fill-rule="evenodd" stop-color="#000000"/>
 <path d="m14 12 1-3v-2h-2v2h1l-1 3zm-4 0 1-3v-2h-2v2h1l-1 3z" fill="#363636" fill-rule="evenodd" stop-color="#000000"/>
</svg>

<svg xmlns="http://www.w3.org/2000/svg" width="16" height="16">
    <path fill="#050505" fill-opacity=".7" fill-rule="evenodd" d="M2 3 1 6v2h2V6H2l1-3H2zm4 0L5 6v2h2V6H6l1-3H6zM14 12l1-3V7h-2v2h1l-1 3zm-4 0 1-3V7H9v2h1l-1 3z"/>
</svg>
